!!!OTL: Die Linde im Thal
!!!ARE: Europa, Mitteleuropa, Deutschland
!!!SCT: A0177
!!!YEM: Copyright 1995, estate of Helmut Schaffrath.
**kern
*ICvox
*Ivox
*M4/2
*k[]
*C:
{2G
2c
2c
=1
2c
2d
2B
2A
=2
1G
2r}
{2c
=3
2B
2G
2A
2A
=4
1G
2r}
{2G
=5
2c
2c
2.g
4f
=6
1e
1d
=7
4c
4d
4e
4d
2c
4B
4A
=8
0B
=9
2r}
{2G
2A
2B
=10
2.c
4d
2e
2d
=11
0c
=12
2r}
==
!!!AGN: Romanze, Ballade, Lied
!! 68 Lieder. Nuernberg bei Berg und Newber No. 25.
!!!ONB: ESAC (Essen Associative Code) Database: ALTDEU
!!!AMT: simple quadruple
!!!AIN: vox
!!!EED: Helmut Schaffrath
!!!EEV: 1.0
*-
